SVG_Azure_Grouped/Data/Database Instance for SAP Solution.svg

<?xml version="1.0" encoding="UTF-8" standalone="no"?>
<!-- Generated by Microsoft Visio, SVG Export Database Instance for SAP Solution.svg Page-1 -->

<svg
   xmlns:dc="http://purl.org/dc/elements/1.1/"
   xmlns:cc="http://creativecommons.org/ns#"
   xmlns:rdf="http://www.w3.org/1999/02/22-rdf-syntax-ns#"
   xmlns:svg="http://www.w3.org/2000/svg"
   xmlns="http://www.w3.org/2000/svg"
   xmlns:sodipodi="http://sodipodi.sourceforge.net/DTD/sodipodi-0.dtd"
   xmlns:inkscape="http://www.inkscape.org/namespaces/inkscape"
   width="0.78890538in"
   height="0.74767524in"
   viewBox="0 0 56.801095 53.832723"
   xml:space="preserve"
   class="st10"
   version="1.1"
   id="svg71"
   sodipodi:docname="Database Instance for SAP Solution.svg"
   style="font-size:12px;overflow:visible;color-interpolation-filters:sRGB;fill:none;fill-rule:evenodd;stroke-linecap:square;stroke-miterlimit:3"
   inkscape:version="0.92.5 (2060ec1f9f, 2020-04-08)"><metadata
   id="metadata75"><rdf:RDF><cc:Work
       rdf:about=""><dc:format>image/svg+xml</dc:format><dc:type
         rdf:resource="http://purl.org/dc/dcmitype/StillImage" /></cc:Work></rdf:RDF></metadata><sodipodi:namedview
   pagecolor="#ffffff"
   bordercolor="#666666"
   borderopacity="1"
   objecttolerance="10"
   gridtolerance="10"
   guidetolerance="10"
   inkscape:pageopacity="0"
   inkscape:pageshadow="2"
   inkscape:window-width="640"
   inkscape:window-height="480"
   id="namedview73"
   showgrid="false"
   inkscape:zoom="1.4526324"
   inkscape:cx="37.867256"
   inkscape:cy="35.880332"
   inkscape:window-x="0"
   inkscape:window-y="0"
   inkscape:window-maximized="0"
   inkscape:current-layer="svg71" />
	<style
   type="text/css"
   id="style2">
	<![CDATA[
		.st1 {fill:url(#grad0-6);stroke:none;stroke-linecap:butt;stroke-width:34}
		.st2 {fill:#e6e6e6;stroke:none;stroke-linecap:butt;stroke-width:34}
		.st3 {fill:#50e6ff}
		.st4 {stroke:none;stroke-linecap:butt;stroke-width:34}
		.st5 {fill:#198ab3;stroke:none;stroke-linecap:butt;stroke-width:34}
		.st6 {fill:url(#grad0-17);stroke:none;stroke-linecap:butt;stroke-width:34}
		.st7 {fill:#ffffff;fill-opacity:0.6;stroke:none;stroke-linecap:butt;stroke-width:34}
		.st8 {fill:#ffffff;fill-opacity:0.9;stroke:none;stroke-linecap:butt;stroke-width:34}
		.st9 {fill:#ffffff;fill-opacity:0.75;stroke:none;stroke-linecap:butt;stroke-width:34}
		.st10 {fill:none;fill-rule:evenodd;font-size:12px;overflow:visible;stroke-linecap:square;stroke-miterlimit:3}
	]]>
	</style>

	<defs
   id="Patterns_And_Gradients">
		<linearGradient
   id="grad0-6"
   x1="0"
   y1="74.44484"
   x2="39.859257"
   y2="74.44484"
   gradientTransform="scale(0.93830148,1.0657555)"
   gradientUnits="userSpaceOnUse">
			<stop
   offset="0"
   stop-color="#005ba1"
   stop-opacity="1"
   id="stop4" />
			<stop
   offset="1"
   stop-color="#0078d4"
   stop-opacity="1"
   id="stop6" />
		</linearGradient>
		<linearGradient
   id="grad0-17"
   x1="-8.850318e-06"
   y1="139.98015"
   x2="29.383207"
   y2="139.98015"
   gradientTransform="scale(1.3899333,0.719459)"
   gradientUnits="userSpaceOnUse">
			<stop
   offset="0"
   stop-color="#32bedd"
   stop-opacity="1"
   id="stop9" />
			<stop
   offset="0.3"
   stop-color="#36c3e1"
   stop-opacity="1"
   id="stop11" />
			<stop
   offset="0.66"
   stop-color="#41d1ee"
   stop-opacity="1"
   id="stop13" />
			<stop
   offset="1"
   stop-color="#50e6ff"
   stop-opacity="1"
   id="stop15" />
		</linearGradient>
	</defs>
	<g
   id="g69"
   transform="translate(-34.000226,-34.001578)">
		<title
   id="title19">Page-1</title>
		<g
   id="group19442-1"
   transform="translate(34,-34.0157)">
			<title
   id="title21">Database Instance for SAP Solution.19442</title>
			<g
   id="group19443-2">
				<title
   id="title23">Sheet.19443</title>
				<g
   id="shape19444-3"
   transform="translate(0,-4.6443)">
					<title
   id="title25">Sheet.19444</title>
					<path
   d="M 18.72,86.09 C 8.42,86.07 0.08,83.04 0.09,79.34 L 0,115.06 c 0,3.68 8.19,6.69 18.38,6.76 h 0.25 c 10.31,0.03 18.66,-2.96 18.67,-6.67 l 0.1,-35.73 c -0.02,3.72 -8.38,6.7 -18.68,6.67 z"
   class="st1"
   id="path27"
   inkscape:connector-curvature="0"
   style="fill:url(#grad0-6);stroke:none;stroke-width:34;stroke-linecap:butt" />
				</g>
				<g
   id="shape19445-7"
   transform="translate(0.0792415,-40.3725)">
					<title
   id="title30">Sheet.19445</title>
					<path
   d="m 37.31,115.15 c 0,3.71 -8.37,6.7 -18.67,6.67 C 8.34,121.8 0,118.77 0.01,115.07 c 0.01,-3.7 8.36,-6.71 18.67,-6.68 10.3,0.02 18.64,3.05 18.63,6.76 z"
   class="st2"
   id="path32"
   inkscape:connector-curvature="0"
   style="fill:#e6e6e6;stroke:none;stroke-width:34;stroke-linecap:butt" />
				</g>
				<g
   id="shape19446-9"
   transform="translate(4.42432,-43.3784)">
					<title
   id="title35">Sheet.19446</title>
					<path
   d="m 28.59,117.61 c 0,2.35 -6.41,4.24 -14.3,4.24 -7.9,0 -14.29,-1.96 -14.28,-4.31 0,-2.34 6.41,-4.24 14.31,-4.24 7.89,0 14.29,1.96 14.28,4.31 z"
   class="st3"
   id="path37"
   inkscape:connector-curvature="0"
   style="fill:#50e6ff" />
					<path
   d="m 28.59,117.61 c 0,2.35 -6.41,4.24 -14.3,4.24 -7.9,0 -14.29,-1.96 -14.28,-4.31 0,-2.34 6.41,-4.24 14.31,-4.24 7.89,0 14.29,1.96 14.28,4.31"
   class="st4"
   id="path39"
   inkscape:connector-curvature="0"
   style="stroke:none;stroke-width:34;stroke-linecap:butt" />
				</g>
				<g
   id="shape19447-12"
   transform="translate(7.40908,-43.3882)">
					<title
   id="title42">Sheet.19447</title>
					<path
   d="M 11.32,118.56 A 34.3941,33.9984 -180 0 0 0,120.15 a 33.2055,32.8235 -180 0 0 11.32,1.7 33.1494,32.768 -180 0 0 11.33,-1.63 34.404,34.0082 -180 0 0 -11.33,-1.66 z"
   class="st5"
   id="path44"
   inkscape:connector-curvature="0"
   style="fill:#198ab3;stroke:none;stroke-width:34;stroke-linecap:butt" />
				</g>
				<g
   id="shape19448-14"
   transform="translate(15.9606)">
					<title
   id="title47">Sheet.19448</title>
					<path
   d="m 1.38,121.85 h 19.66 a 1.39003,1.37404 -180 0 0 0.99,-0.41 l 18.41,-18.4 a 1.38342,1.36751 -180 0 0 -0.99,-2.33 H 1.38 A 1.38342,1.36751 -180 0 0 0,102.08 v 18.4 a 1.38012,1.36424 -180 0 0 1.38,1.37 z"
   class="st6"
   id="path49"
   inkscape:connector-curvature="0"
   style="fill:url(#grad0-17);stroke:none;stroke-width:34;stroke-linecap:butt" />
				</g>
				<g
   id="shape19449-18"
   transform="translate(30.5278,-3.08424)">
					<title
   id="title52">Sheet.19449</title>
					<path
   d="m 6.86,110.06 v 7.85 L 0,121.85 v -7.86 z"
   class="st7"
   id="path54"
   inkscape:connector-curvature="0"
   style="fill:#ffffff;fill-opacity:0.6;stroke:none;stroke-width:34;stroke-linecap:butt" />
				</g>
				<g
   id="shape19450-20"
   transform="translate(23.6602,-10.9335)">
					<title
   id="title57">Sheet.19450</title>
					<path
   d="M 13.73,117.91 6.87,121.85 0,117.9 6.87,113.96 Z"
   class="st8"
   id="path59"
   inkscape:connector-curvature="0"
   style="fill:#ffffff;fill-opacity:0.9;stroke:none;stroke-width:34;stroke-linecap:butt" />
				</g>
				<g
   id="shape19451-22"
   transform="translate(23.6602,-3.08424)">
					<title
   id="title62">Sheet.19451</title>
					<path
   d="m 6.87,114 v 7.85 L 0,117.91 v -7.86 z"
   class="st9"
   id="path64"
   inkscape:connector-curvature="0"
   style="fill:#ffffff;fill-opacity:0.75;stroke:none;stroke-width:34;stroke-linecap:butt" />
				</g>
			</g>
		</g>
	</g>
</svg>

<?xml version="1.0" encoding="UTF-8" standalone="no"?>
<!DOCTYPE svg PUBLIC "-//W3C//DTD SVG 1.1//EN" "http://www.w3.org/Graphics/SVG/1.1/DTD/svg11.dtd">
<!-- Generated by Microsoft Visio, SVG Export Database Instance for SAP Solution.svg Page-1 -->
<svg xmlns="http://www.w3.org/2000/svg" xmlns:xlink="http://www.w3.org/1999/xlink" xmlns:ev="http://www.w3.org/2001/xml-events"
		width="1.73335in" height="1.69233in" viewBox="0 0 124.801 121.848" xml:space="preserve" color-interpolation-filters="sRGB"
		class="st10">
	<style type="text/css">
	<![CDATA[
		.st1 {fill:url(#grad0-6);stroke:none;stroke-linecap:butt;stroke-width:34}
		.st2 {fill:#e6e6e6;stroke:none;stroke-linecap:butt;stroke-width:34}
		.st3 {fill:#50e6ff}
		.st4 {stroke:none;stroke-linecap:butt;stroke-width:34}
		.st5 {fill:#198ab3;stroke:none;stroke-linecap:butt;stroke-width:34}
		.st6 {fill:url(#grad0-17);stroke:none;stroke-linecap:butt;stroke-width:34}
		.st7 {fill:#ffffff;fill-opacity:0.6;stroke:none;stroke-linecap:butt;stroke-width:34}
		.st8 {fill:#ffffff;fill-opacity:0.9;stroke:none;stroke-linecap:butt;stroke-width:34}
		.st9 {fill:#ffffff;fill-opacity:0.75;stroke:none;stroke-linecap:butt;stroke-width:34}
		.st10 {fill:none;fill-rule:evenodd;font-size:12px;overflow:visible;stroke-linecap:square;stroke-miterlimit:3}
	]]>
	</style>

	<defs id="Patterns_And_Gradients">
		<linearGradient id="grad0-6" x1="0" y1="0" x2="1" y2="0" gradientTransform="rotate(0.14947724044305 0.5 0.5)">
			<stop offset="0" stop-color="#005ba1" stop-opacity="1"/>
			<stop offset="1" stop-color="#0078d4" stop-opacity="1"/>
		</linearGradient>
		<linearGradient id="grad0-17" x1="0" y1="0" x2="1" y2="0" gradientTransform="rotate(-90 0.5 0.5)">
			<stop offset="0" stop-color="#32bedd" stop-opacity="1"/>
			<stop offset="0.3" stop-color="#36c3e1" stop-opacity="1"/>
			<stop offset="0.66" stop-color="#41d1ee" stop-opacity="1"/>
			<stop offset="1" stop-color="#50e6ff" stop-opacity="1"/>
		</linearGradient>
	</defs>
	<g>
		<title>Page-1</title>
		<g id="group18993-1" transform="translate(34,-34.0157)">
			<title>Database Instance for SAP Solution.18993</title>
			<g id="group18994-2">
				<title>Sheet.18994</title>
				<g id="shape18995-3" transform="translate(0,-4.6443)">
					<title>Sheet.18995</title>
					<path d="M18.72 86.09 C8.42 86.07 0.08 83.04 0.09 79.34 L0 115.06 C0 118.74 8.19 121.75 18.38 121.82 L18.63 121.82
								 C28.94 121.85 37.29 118.86 37.3 115.15 L37.4 79.42 C37.38 83.14 29.02 86.12 18.72 86.09 Z"
							class="st1"/>
				</g>
				<g id="shape18996-7" transform="translate(0.0792415,-40.3725)">
					<title>Sheet.18996</title>
					<path d="M37.31 115.15 C37.31 118.86 28.94 121.85 18.64 121.82 C8.34 121.8 0 118.77 0.01 115.07 C0.02 111.37
								 8.37 108.36 18.68 108.39 C28.98 108.41 37.32 111.44 37.31 115.15 Z" class="st2"/>
				</g>
				<g id="shape18997-9" transform="translate(4.42432,-43.3784)">
					<title>Sheet.18997</title>
					<path d="M28.59 117.61 C28.59 119.96 22.18 121.85 14.29 121.85 C6.39 121.85 0 119.89 0.01 117.54 C0.01 115.2
								 6.42 113.3 14.32 113.3 C22.21 113.3 28.61 115.26 28.6 117.61 L28.59 117.61 Z" class="st3"/>
					<path d="M28.59 117.61 C28.59 119.96 22.18 121.85 14.29 121.85 C6.39 121.85 0 119.89 0.01 117.54 C0.01 115.2
								 6.42 113.3 14.32 113.3 C22.21 113.3 28.61 115.26 28.6 117.61" class="st4"/>
				</g>
				<g id="shape18998-12" transform="translate(7.40908,-43.3882)">
					<title>Sheet.18998</title>
					<path d="M11.32 118.56 A34.3941 33.9984 -180 0 0 0 120.15 A33.2055 32.8235 -180 0 0 11.32 121.85 A33.1494 32.768
								 -180 0 0 22.65 120.22 A34.404 34.0082 -180 0 0 11.32 118.56 Z" class="st5"/>
				</g>
				<g id="shape18999-14" transform="translate(15.9606,1.42109E-14)">
					<title>Sheet.18999</title>
					<path d="M1.38 121.85 L21.04 121.85 A1.39003 1.37404 -180 0 0 22.03 121.44 L40.44 103.04 A1.38342 1.36751 -180
								 0 0 39.45 100.71 L1.38 100.71 A1.38342 1.36751 -180 0 0 -0 102.08 L0 120.48 A1.38012 1.36424 -180
								 0 0 1.38 121.85 Z" class="st6"/>
				</g>
				<g id="shape19000-18" transform="translate(30.5278,-3.08424)">
					<title>Sheet.19000</title>
					<path d="M6.86 110.06 L6.86 117.91 L0 121.85 L0 113.99 L6.86 110.06 Z" class="st7"/>
				</g>
				<g id="shape19001-20" transform="translate(23.6602,-10.9335)">
					<title>Sheet.19001</title>
					<path d="M13.73 117.91 L6.87 121.85 L0 117.9 L6.87 113.96 L13.73 117.91 Z" class="st8"/>
				</g>
				<g id="shape19002-22" transform="translate(23.6602,-3.08424)">
					<title>Sheet.19002</title>
					<path d="M6.87 114 L6.87 121.85 L0 117.91 L0 110.05 L6.87 114 Z" class="st9"/>
				</g>
			</g>
		</g>
	</g>
</svg>
